svgs/thin/square-9.svg

<svg xmlns="http://www.w3.org/2000/svg" viewBox="0 0 448 512"><!-- Font Awesome Pro 6.0.0-alpha2 by @fontawesome - https://fontawesome.com License - https://fontawesome.com/license (Commercial License) --><path d="M224 128C171.062 128 128 171.062 128 224S171.062 320 224 320C228.547 320 232.896 319.273 237.277 318.658L178.719 369.969C175.406 372.906 175.062 377.937 177.969 381.281C179.562 383.062 181.781 384 184 384C185.875 384 187.75 383.344 189.281 382.031C189.281 382.031 288.439 294.73 288.654 294.49C307.787 276.93 320 251.957 320 224C320 171.062 276.938 128 224 128ZM224 304C179.875 304 144 268.125 144 224S179.875 144 224 144S304 179.875 304 224S268.125 304 224 304ZM384 32H64C28.654 32 0 60.654 0 96V416C0 451.346 28.654 480 64 480H384C419.346 480 448 451.346 448 416V96C448 60.654 419.346 32 384 32ZM432 416C432 442.467 410.467 464 384 464H64C37.533 464 16 442.467 16 416V96C16 69.533 37.533 48 64 48H384C410.467 48 432 69.533 432 96V416Z"/></svg>

<svg xmlns="http://www.w3.org/2000/svg" viewBox="0 0 448 512"><!--! Font Awesome Pro 6.3.0 by @fontawesome - https://fontawesome.com License - https://fontawesome.com/license (Commercial License) Copyright 2023 Fonticons, Inc. --><path d="M224 128C171.1 128 128 171.1 128 224s43.06 96 96 96c4.547 0 8.896-.7266 13.28-1.342l-58.56 51.31c-3.312 2.938-3.656 7.969-.75 11.31C179.6 383.1 181.8 384 184 384c1.875 0 3.75-.6562 5.281-1.969c0 0 99.16-87.3 99.37-87.54C307.8 276.9 320 251.1 320 224C320 171.1 276.9 128 224 128zM224 304C179.9 304 144 268.1 144 224S179.9 144 224 144s80 35.88 80 80S268.1 304 224 304zM384 32H64C28.65 32 0 60.65 0 96v320c0 35.35 28.65 64 64 64h320c35.35 0 64-28.65 64-64V96C448 60.65 419.3 32 384 32zM432 416c0 26.47-21.53 48-48 48H64c-26.47 0-48-21.53-48-48V96c0-26.47 21.53-48 48-48h320c26.47 0 48 21.53 48 48V416z"/></svg>
